X:1
T:Thornton, CMD
T:Thornton, CMD
T:Theodore Edson Perkins, 1865
T:Public Domain Courtesy of the Cyber Hymnal™
C:Theodore Edson Perkins, 1865
Z:Public Domain
Z:Courtesy of the Cyber Hymnal™
%%score ( 1 2 ) ( 3 4 )
L:1/8
Q:1/4=100
M:6/8
K:Bb
V:1 treble 
V:2 treble 
V:3 bass 
V:4 bass 
V:1
 [DF] | [DF]2 [DB] [DB]2 [FA] | [EG]2 [Gc] [Gc]2 [GB] | [FA]2 [FB] [Fd]2 [Ec] | [DB]3- [DB]2 [DF] | %5
 [DF]2 [DB] [DB]2 [FA] | [EG]2 [Gc] [Gc]2 [GB] | [FA]2 [FB] [Fd]2 [Ec] | [DB]3- [DB]2 [DB] | %9
 [FA]2 [Fc] [Fc]2 [FA] | [FB]2 [Fc] [Fd]2 [Fd] | [Fc]2 [GB] [FA]2 [=EG] | F3- F2 [DF] | %13
 [DF]2 [DB] [DB]2 [FA] | [EG]2 [Gc] [Gc]2 [GB] | [FA]2 [FB] [Fd]2 [Ec] | [DB]3- [DB]2 |] %17
V:2
 x | x6 | x6 | x6 | x6 | x6 | x6 | x6 | x6 | x6 | x6 | x6 | F3- F2 x | x6 | x6 | x6 | x5 |] %17
V:3
 [B,,B,] | [B,,B,]2 [B,,B,] [B,,B,]2 [B,,B,] | [E,B,]2 [C,E] [C,E]2 [E,C] | %3
 [F,C]2 [F,B,] [F,A,]2 [F,A,] | [B,,B,]3- [B,,B,]2 [B,,B,] | [B,,B,]2 [B,,B,] [B,,B,]2 [B,,B,] | %6
 [E,B,]2 [C,E] [C,E]2 [E,C] | [F,C]2 [F,B,] [F,A,]2 [F,A,] | [B,,B,]3- [B,,B,]2 [B,,B,] | %9
 [F,C]2 [F,A,] [F,A,]2 [E,C] | [D,B,]2 [F,A,] B,2 [B,,B,] | [C,A,]2 [C,B,] [C,C]2 [C,B,] | %12
 [F,A,]3- [F,A,]2 [B,,B,] | [B,,B,]2 [B,,B,] [B,,B,]2 [B,,B,] | [E,B,]2 [C,E] [C,E]2 [E,C] | %15
 [F,C]2 [F,B,] [F,A,]2 [F,A,] | [B,,B,]3- [B,,B,]2 |] %17
V:4
 x | x6 | x6 | x6 | x6 | x6 | x6 | x6 | x6 | x6 | x3 B,2 x | x6 | x6 | x6 | x6 | x6 | x5 |] %17

